packages/tokens/icons/links/size32Px.svg

<svg viewBox="0 0 32 32" fill="none" xmlns="http://www.w3.org/2000/svg" width="1em" height="1em"><path d="M15.5417 10.3421L19.8727 6.01108C21.6301 4.25372 24.4793 4.25372 26.2367 6.01108V6.01108C27.994 7.76844 27.994 10.6177 26.2367 12.375L20.5798 18.0319C18.8225 19.7893 15.9732 19.7893 14.2159 18.0319V18.0319" stroke="currentColor" stroke-linecap="round"/><path d="M16.0416 22.4821L11.7105 26.8131C9.95319 28.5705 7.10394 28.5705 5.34658 26.8131V26.8131C3.58922 25.0558 3.58922 22.2065 5.34658 20.4492L11.0034 14.7923C12.7608 13.035 15.61 13.035 17.3674 14.7923V14.7923" stroke="currentColor" stroke-linecap="round"/></svg>

<svg xmlns="http://www.w3.org/2000/svg" fill="none" viewBox="0 0 32 32" width="1em" height="1em"><path stroke="currentColor" stroke-linecap="round" d="m15.542 10.342 4.33-4.33a4.5 4.5 0 0 1 6.365 0v0a4.5 4.5 0 0 1 0 6.363l-5.657 5.657a4.5 4.5 0 0 1-6.364 0v0"/><path stroke="currentColor" stroke-linecap="round" d="m16.042 22.482-4.332 4.331a4.5 4.5 0 0 1-6.363 0v0a4.5 4.5 0 0 1 0-6.364l5.656-5.657a4.5 4.5 0 0 1 6.364 0v0"/></svg>
